X: 1362
T: An Raibh Tú Ag An gCarraig?
R: waltz
M: 3/4
K: Eminor
ed|BB3 Bd|ee3 ef|gg g3 f/e/|f3e (3dBA|
B4 ef|g>g g3 f/e/|ff3 (3edB|ee3 z d/e/|
f>e e2 gf|e>d BA Bc|d2 B2 gf|e>d BA FE|
D4 EF|G>G G2 e/d/B/G/|FF F2 z A/F/|E3 D/E/ F>E|E4||

